X: 9
T: The Road To Lisdoonvarna
R: reel
M: 4/4
L: 1/8
K: Dmix
|DAAD ABcA|GE E2 cEGA|DAAD ABcA|BcAG FDDA|
DAAD ABcA|GEcE dEcE|DAAD ABcA|BcAG FD D2||
|(3Bcd ed ^cA A2|BGGB ^cA A2|(3Bcd ed ^cAA^c|BcAG FD D2|
(3Bcd ed ^cA A2|BGGB ^cA A2|defd ^cAA^c|BcAG FD D2||


Tune 249	Setting 12967

